symbolic/32x32/apps/chrome-store.svg

<svg xmlns="http://www.w3.org/2000/svg" width="32" height="32" version="1">
 <path fill="#e4e4e4" d="m12 3-2 2v3h-8v18.5c0 0.831 0.669 1.5 1.5 1.5h25c0.831 0 1.5-0.669 1.5-1.5v-18.5h-8v-3l-2-2zm0 2h8v3h-8z"/>
 <path opacity=".2" d="m12 5v1h8v-1h-8zm-10 21.5v1c0 0.831 0.669 1.5 1.5 1.5h25c0.831 0 1.5-0.669 1.5-1.5v-1c0 0.831-0.669 1.5-1.5 1.5h-25c-0.831 0-1.5-0.669-1.5-1.5z"/>
 <path style="fill:#dd4d3e" d="M 15.978516 14 L 15.978516 14.001953 C 11.074759 14.001953 6.7881562 16.516456 4.2949219 20.320312 L 8.7304688 28 L 9.6894531 28 C 9.6894513 27.998015 9.6894531 27.996126 9.6894531 27.994141 C 9.6894531 24.505966 12.515519 23.483578 15.978516 23.095703 L 28.472656 21.695312 C 26.179109 17.120406 21.458657 14 15.978516 14 z"/>
 <path style="fill:#109f5b" d="M 4.3007812 20.351562 C 3.0104557 22.313985 2.2469709 24.566742 2.0566406 26.888672 C 2.2279778 27.528639 2.804525 28 3.5 28 L 8.7109375 28 L 4.3007812 20.351562 z"/>
 <path style="fill:#ffce41" d="M 28.126953 20.986328 L 16 21.001953 C 17.013517 21.029353 18.221072 21.997984 19.164062 22.542969 C 21.188444 23.712937 22.310956 25.824862 22.308594 28 L 28.5 28 C 29.201816 28 29.781948 27.520024 29.947266 26.871094 C 29.799566 25.073223 29.311564 23.31611 28.5 21.703125 L 28.126953 20.986328 z"/>
 <path style="fill:#ffffff" d="M 16 21 C 12.122 21 9 24.122 9 28 L 23 28 C 23 24.122 19.878 21 16 21 z"/>
 <path style="fill:#4587f3" d="M 16 22 C 12.676 22 10 24.676 10 28 L 22 28 C 22 24.676 19.324 22 16 22 z"/>
</svg>

<svg xmlns="http://www.w3.org/2000/svg" width="32" height="32" version="1"><path fill="#e4e4e4" d="m12 3-2 2v3H2v18.5c0 .831.669 1.5 1.5 1.5h25c.831 0 1.5-.669 1.5-1.5V8h-8V5l-2-2zm0 2h8v3h-8z"/><path opacity=".2" d="M12 5v1h8V5h-8zM2 26.5v1c0 .831.669 1.5 1.5 1.5h25c.831 0 1.5-.669 1.5-1.5v-1c0 .831-.669 1.5-1.5 1.5h-25c-.831 0-1.5-.669-1.5-1.5z"/><path style="fill:#dd4d3e" d="M15.979 14v.002c-4.904 0-9.19 2.514-11.684 6.318L8.73 28h.96v-.006c0-3.488 2.826-4.51 6.289-4.898l12.494-1.4A13.935 13.935 0 0 0 15.979 14z"/><path style="fill:#109f5b" d="M4.3 20.352a13.978 13.978 0 0 0-2.243 6.537C2.228 27.529 2.805 28 3.5 28h5.21L4.3 20.352z"/><path style="fill:#ffce41" d="M28.127 20.986 16 21.002c1.014.027 2.221.996 3.164 1.541A6.278 6.278 0 0 1 22.31 28H28.5c.702 0 1.282-.48 1.447-1.129a14.061 14.061 0 0 0-1.447-5.168l-.373-.717z"/><path style="fill:#fff" d="M16 21c-3.878 0-7 3.122-7 7h14c0-3.878-3.122-7-7-7z"/><path style="fill:#4587f3" d="M16 22c-3.324 0-6 2.676-6 6h12c0-3.324-2.676-6-6-6z"/></svg>
